**kern	**text	**kern	**text	**kern	**text	**kern	**text	**kern	**text	**cdata-harm
*staff5	*staff5	*staff4	*staff4	*staff3	*staff3	*staff2	*staff2	*staff1	*staff1	*
=1-	=1-	=1-	=1-	=1-	=1-	=1-	=1-	=1-	=1-	=1-
*clefF4	*	*clefGv2	*	*clefGv2	*	*clefGv2	*	*clefG2	*	*
*k[]	*	*k[]	*	*k[]	*	*k[]	*	*k[]	*	*
*M4/4	*	*M4/4	*	*M4/4	*	*M4/4	*	*M4/4	*	*
1r	.	2.D/	Me	2r	.	1r	.	1r	.	<CON_5v
.	.	.	.	[2A/	Me	.	.	.	.	.
.	.	4E/	pur	.	.	.	.	.	.	.
=2	=2	=2	=2	=2	=2	=2	=2	=2	=2	.
1r	.	2F/	sta-	4A/]	.	1r	.	1r	.	.
.	.	.	.	4B\	pur	.	.	.	.	.
.	.	4E/	to	2c\	sta-	.	.	.	.	.
.	.	4F/	dal	.	.	.	.	.	.	.
=3	=3	=3	=3	=3	=3	=3	=3	=3	=3	.
1r	.	4G/	co-	4B\	to	1r	.	1r	.	.
.	.	8F/L	.	4c\	dal	.	.	.	.	.
.	.	8E/J	.	.	.	.	.	.	.	.
.	.	4D/	.	4d\	co-	.	.	.	.	.
.	.	4E/	.	8c\L	.	.	.	.	.	.
.	.	.	.	8B\J	.	.	.	.	.	.
=4	=4	=4	=4	=4	=4	=4	=4	=4	=4	.
2.D\	Me	4.F/	.	4A/	.	1r	.	2r	.	.
.	.	.	.	4A/	re	.	.	.	.	.
.	.	8D/	.	.	.	.	.	.	.	.
.	.	2d\	.	4F/	Me	.	.	[2a/	Me	.
4E\	pur	.	.	4G/	pur	.	.	.	.	.
=5	=5	=5	=5	=5	=5	=5	=5	=5	=5	.
2F\	sta-	1c\	re	2A/	sta-	1r	.	4a/]	.	.
.	.	.	.	.	.	.	.	4b\	pur	.
4E\	to	.	.	4G/	to	.	.	2cc\	sta-	.
4F\	dal	.	.	4A/	dal	.	.	.	.	.
=6	=6	=6	=6	=6	=6	=6	=6	=6	=6	.
4G\	co-	2r	.	4B-\	co-	2.d\	Me	4b\	to	.
8F\L	.	.	.	8A/L	.	.	.	4cc\	dal	.
8E\J	.	.	.	8G/J	.	.	.	.	.	.
[2D\	.	[2F/	Me	[2A/	.	.	.	4dd\	co-	.
.	.	.	.	.	.	4e\	pur	8cc\L	.	.
.	.	.	.	.	.	.	.	8b\J	.	.
=7	=7	=7	=7	=7	=7	=7	=7	=7	=7	.
2D\]	.	4F/]	.	2A/]	.	2f\	sta-	4a/	.	.
.	.	4G/	pur	.	.	.	.	4b\	.	.
2AA/	re	4A/	sta-	2A/	re	4.e\	to	4cc\	.	.
.	.	8G/L	to	.	.	.	.	8b/L	.	.
.	.	8F/J	dal	.	.	8f\	dal	8a/J	.	.
=8	=8	=8	=8	=8	=8	=8	=8	=8	=8	.
1r	.	1E/	co-	4r	.	4g#\	co-	4b\	.	.
.	.	.	.	4e\	dal	2a\	.	4cc\	.	.
.	.	.	.	2e\	co-	.	.	2b\	.	.
.	.	.	.	.	.	4g#\	.	.	.	.
=9	=9	=9	=9	=9	=9	=9	=9	=9	=9	.
4r	.	2A/	re	4e\	re	4a\	re	4a/	re	>
4A\	fur-	.	.	4c\	fur-	4e\	fur-	4cc\	fur-	<HOM_4v
4.G\	ti-	2r	.	4.d\	ti-	4.g\	ti-	4.b\	ti-	.
8E\	va-	.	.	8e\	va-	8g\	va-	8cc\	va-	.
=10	=10	=10	=10	=10	=10	=10	=10	=10	=10	.
4F\	men-	1r	.	4c\	men-	4f\	men-	4a/	men-	.
4C/	teil	.	.	4c\	teil	4e\	teil	4g/	teil	.
2G\	lau-	.	.	2B\	lau-	2d\	lau-	2g/	lau-	.
=11	=11	=11	=11	=11	=11	=11	=11	=11	=11	.
4C/	ro	4r	.	4c\	ro	4e\	ro	4g/	ro	>
4C/	fur-	4e\	fur-	4G/	fur-	4g\	fur-	4cc\	fur-	<HOM_5v_rep
4.G\	ti-	4.d\	ti-	4.G/	ti-	4.g\	ti-	4.b\	ti-	.
8E\	va-	8e\	va-	8G/	va-	8g\	va-	8cc\	va-	.
=12	=12	=12	=12	=12	=12	=12	=12	=12	=12	.
4F\	men-	4c\	men-	4A/	men-	4f\	men-	4a/	men-	.
4D\	teil	4f\	teil	4A/	teil	4a\	teil	4dd\	teil	.
2AA/	lau-	2e\	lau-	2A/	lau-	2a\	lau-	2cc#\	lau-	.
=13	=13	=13	=13	=13	=13	=13	=13	=13	=13	.
2D\	ro	[1d\	ro	2A/	ro	2f#\	ro	2dd\	ro	>
4r	.	.	.	4r	.	2f#\	il	2a/	il	<HOMlib_4v
4D\	il	.	.	4A/	il	.	.	.	.	.
=14	=14	=14	=14	=14	=14	=14	=14	=14	=14	.
2G\	lau-	1d\]	.	4G/	lau-	4g\	lau-	4b\	lau-	.
.	.	.	.	4A/	.	8f\L	.	4cc\	ro	.
.	.	.	.	.	.	8e\J	.	.	.	.
2G\	ro	.	.	4B\	.	4d\	.	4dd\	svel-	.
.	.	.	.	4c\	.	4e\	ro	8cc\L	.	.
.	.	.	.	.	.	.	.	8b\J	.	.
=15	=15	=15	=15	=15	=15	=15	=15	=15	=15	.
1r	.	1r	.	4d\	.	4f#\	svel-	4a/	.	.
.	.	.	.	4e\	ro	2g\	.	4g/	.	.
.	.	.	.	2d\	svel-	.	.	2a/	.	.
.	.	.	.	.	.	4f#\	.	.	.	.
=16	=16	=16	=16	=16	=16	=16	=16	=16	=16	.
2r	.	2r	.	[1G/	to	2g\	to	1b\	to	>
2GG/	il	2B\	il	.	.	2d\	il	.	.	<HOMlib_5v_rep
=17	=17	=17	=17	=17	=17	=17	=17	=17	=17	.
4C/	lau-	4c\	lau-	1G/]	.	4e\	lau-	2r	.	.
4D\	.	8B/L	.	.	.	4f\	.	.	.	.
.	.	8A/J	.	.	.	.	.	.	.	.
4E\	.	4G/	.	.	.	4g\	.	2g/	il	.
4F\	.	4A/	ro	.	.	8f\L	.	.	.	.
.	.	.	.	.	.	8e\J	.	.	.	.
=18	=18	=18	=18	=18	=18	=18	=18	=18	=18	.
4G\	.	4B\	svel-	1r	.	4d\	.	4g/	lau-	.
4A\	ro	2c\	.	.	.	4c\	ro	4f#/	ro	.
2G\	svel-	.	.	.	.	2d\	svel-	2g/	svel-	.
.	.	4B\	.	.	.	.	.	.	.	.
=19	=19	=19	=19	=19	=19	=19	=19	=19	=19	.
4C/	to	2c\	to	4r	.	2e\	to	2g/	to	>
4C/	che	.	.	4G/	che	.	.	.	.	<ANTIF_4v
2F\	gi&agrave;	4r	.	2A/	gi&agrave;	4r	.	2r	.	.
.	.	4A/	che	.	.	4c\	che	.	.	.
=20	=20	=20	=20	=20	=20	=20	=20	=20	=20	.
4r	.	2d\	gi&agrave;	4r	.	4.f\	gi&agrave;	4r	.	.
4D\	che	.	.	4d\	che	.	.	4a/	che	.
.	.	.	.	.	.	8e\	.	.	.	.
2G\	gi&agrave;	4r	.	2d\	gi&agrave;	2d\	.	2b\	gi&agrave;	.
.	.	4G/	che	.	.	.	.	.	.	.
=21	=21	=21	=21	=21	=21	=21	=21	=21	=21	.
4C/	tu	2G/	gi&agrave;	4e\	tu	4g\	tu	4cc\	tu	>
8C/L	vi	.	.	8e\L	vi	8g\L	vi	8cc\L	vi	<HOMlib_5v
8C/J	pian-	.	.	8e\J	pian-	8g\J	pian-	8cc\J	pian-	.
4D\	tas-	2r	.	4.d\	tas-	4f\	tas-	4b\	tas-	.
4D\	tiA-	.	.	.	.	4f\	tiA-	4a/	tiA-	.
.	.	.	.	8c\	.	.	.	.	.	.
=22	=22	=22	=22	=22	=22	=22	=22	=22	=22	.
1E\	mo-	2r	.	4B\	.	1e\	mo-	4g#/	mo-	.
.	.	.	.	4c\	tiA-	.	.	2a/	.	.
.	.	4B\	tu	2B\	mo-	.	.	.	.	.
.	.	8B\L	vi	.	.	.	.	4g#/	.	.
.	.	8B\J	pian-	.	.	.	.	.	.	.
=23	=23	=23	=23	=23	=23	=23	=23	=23	=23	.
4AA/	re	4c#\	tas-	2A/	re	4e\	re	[1a/	re.	.
4D\	che	4d\	tiA-	.	.	4f\	che	.	.	.
2AA/	gi&agrave;	2c#\	mo-	4r	.	2e\	gi&agrave;	.	.	.
.	.	.	.	4A/	che	.	.	.	.	.
=24	=24	=24	=24	=24	=24	=24	=24	=24	=24	.
4D\	tu	4d\	re	2A/	gi&agrave;	4f\	tu	1a/]	.	.
8D\L	vi	4d\	pian-	.	.	8f\L	vi	.	.	.
8D\J	pian-	.	.	.	.	8f\J	pian-	.	.	.
4C/	tas-	4e\	tas-	4A/	tu	4e\	tas-	.	.	.
4D\	tiA-	4A/	tiA-	8F/L	vi	4d\	tiA-	.	.	.
.	.	.	.	8F/J	pian-	.	.	.	.	.
=25	=25	=25	=25	=25	=25	=25	=25	=25	=25	.
1AA/	mo-	1A/	mo-	4E/	tas-	4c#\	mo-	1r	.	.
.	.	.	.	4F/	tiA-	2d\	.	.	.	.
.	.	.	.	2E/	mo-	.	.	.	.	.
.	.	.	.	.	.	4c#\	.	.	.	.
=26	=26	=26	=26	=26	=26	=26	=26	=26	=26	.
2D\	re.	1A/	re.	1D/	re.	1d\	re.	2r	.	>
4D\	E	.	.	.	.	.	.	4f/	E	<ANTIF_3v
4E\	tu'l	.	.	.	.	.	.	4g/	tu'l	.
=27	=27	=27	=27	=27	=27	=27	=27	=27	=27	.
2F\	ve-	4A/	E	1r	.	4c\	E	2a/	ve-	.
.	.	4B\	tu'l	.	.	4d\	tu'l	.	.	.
4E\	die	2c\	ve-	.	.	2e\	ve-	2g/	di	.
4F\	con-	.	.	.	.	.	.	.	.	.
=28	=28	=28	=28	=28	=28	=28	=28	=28	=28	.
4G\	sen-	4B\	die	2r	.	4d\	die	2r	.	.
8F\L	.	4c\	tu'l	.	.	4e\	con-	.	.	.
8E\J	.	.	.	.	.	.	.	.	.	.
2D\	.	2d\	ve-	4F/	E	2f\	sen-	4a/	E	.
.	.	.	.	4G/	tu'l	.	.	4b\	tu'l	.
=29	=29	=29	=29	=29	=29	=29	=29	=29	=29	.
1AA/	ti	4c\	die	2.A/	ve-	[1e\	ti	2.cc\	ve-	.
.	.	4B\	con-	.	.	.	.	.	.	.
.	.	2A/	sen-	.	.	.	.	.	.	.
.	.	.	.	8G/L	die	.	.	8b/L	die	.
.	.	.	.	8F/J	con-	.	.	8a/J	con-	.
=30	=30	=30	=30	=30	=30	=30	=30	=30	=30	.
1r	.	4B\	tie	1E/	sen-	1e\]	.	4g#/	sen-	.
.	.	4c\	con-	.	.	.	.	2a/	.	.
.	.	2B\	sen-	.	.	.	.	.	.	.
.	.	.	.	.	.	.	.	4g#/	.	.
=31	=31	=31	=31	=31	=31	=31	=31	=31	=31	.
1r	.	4c\	ti	4A/	ti	2e\	Che	4a/	ti	>
.	.	4c\	che	4A/	che	.	.	4cc\	che	<HOM_4v
.	.	4.d\	quel	4.G/	quel	4.g\	quel	4.b\	quel	.
.	.	8e\	che	8E/	che	8g\	che	8cc\	che	.
=32	=32	=32	=32	=32	=32	=32	=32	=32	=32	.
1r	.	4c\	l'ha	4F/	l'ha	4f\	l'ha	4a/	l'ha	.
.	.	4c\	ra-	4C/	ra-	4e\	ra-	4g/	ra-	.
.	.	2B\	pi-	2G/	pi-	2d\	pi-	2g/	pi-	.
=33	=33	=33	=33	=33	=33	=33	=33	=33	=33	.
4r	.	4c\	to	4C/	to	4g\	to	4e/	to	>
4C/	Che	4c\	Che	4c\	Che	4g\	Che	4ee\	Che	<HOM_5v_rep
4.G\	quel	4.d\	quel	4.B\	quel	4.g\	quel	4.dd\	quel	.
8E\	che	8G/	che	8c\	che	8g\	che	8ee\	che	.
=34	=34	=34	=34	=34	=34	=34	=34	=34	=34	.
4F\	l'ha	4c\	l'ha	4A/	l'ha	4f\	l'ha	4cc\	l'ha	.
4C/	ra-	4c\	ra-	4G/	ra-	4e\	ra-	4cc\	ra-	.
2G\	pi-	2d\	pi-	2G/	pi-	2g\	pi-	2b\	pi-	.
=35	=35	=35	=35	=35	=35	=35	=35	=35	=35	.
4C/	to	4e\	to	4G/	to	4g\	to	4cc\	to	.
4C/	Non	4e\	Non	4G/	Non	4g\	Non	4cc\	Non	.
4.G\	de-	4.d\	de-	4.G/	de-	4.g\	de-	4.b\	de-	.
8E\	baes-	8e\	baes-	8G/	baes-	8g\	baes-	8cc\	baes-	.
=36	=36	=36	=36	=36	=36	=36	=36	=36	=36	.
4F\	ser	4c\	ser	4A/	ser	4f\	sed	4a/	ser	.
4D\	pu-	4f\	pu-	4A/	pu-	4a\	pu-	4dd\	pu-	.
2AA/	ni-	2e\	ni-	2A/	ni-	2a\	ni-	2cc#\	ni-	.
=37	=37	=37	=37	=37	=37	=37	=37	=37	=37	.
4D\	to?	2d\	to?	2A/	to?	2f#\	to?	1dd\	to?	>
4D\	Non	.	.	.	.	.	.	.	.	<CONlib_5v
[2D\	de-	[2A/	Non	2F#/	Non	4r	.	.	.	.
.	.	.	.	.	.	4d\	Non	.	.	.
=38	=38	=38	=38	=38	=38	=38	=38	=38	=38	.
4D\]	.	2A/]	.	1F/	de-	4.d\	de-	4r	.	.
4D\	baes-	.	.	.	.	.	.	4a/	Non	.
.	.	.	.	.	.	8d\	baes-	.	.	.
4BB/	ser	[2B\	de-	.	.	2d\	ser	[2dd\	de-	.
4BB/	pu-	.	.	.	.	.	.	.	.	.
=39	=39	=39	=39	=39	=39	=39	=39	=39	=39	.
[1E\	ni-	2B\]	.	2G#/	baes-	1e\	pu-	2dd\]	.	.
.	.	2A/	baes-	2A/	ser	.	.	2cc\	baes-	.
=40	=40	=40	=40	=40	=40	=40	=40	=40	=40	.
1E\_	.	2B\	ser	2G#/	pu-	[1e\	ni-	2b\	ser	.
.	.	2c\	pu-	[2A/	ni-	.	.	2a/	pu-	.
=41	=41	=41	=41	=41	=41	=41	=41	=41	=41	.
1E\]	.	1B\	ni-	2A/]	.	1e\]	.	1b\	ni-	.
.	.	.	.	2G#/	.	.	.	.	.	.
=42	=42	=42	=42	=42	=42	=42	=42	=42	=42	.
1AA/	to?	2c\	to?	2A/	to?	1e\	to?	1a/	to?	>
.	.	4r	.	4r	.	.	.	.	.	.
.	.	4e\	Ma	4c\	Ma	.	.	.	.	<ANTIF_3v+CON_3v
=43	=43	=43	=43	=43	=43	=43	=43	=43	=43	.
1r	.	4.e\	te-	4.c\	te-	1r	.	4r	.	.
.	.	.	.	.	.	.	.	4g/	Ma	.
.	.	8d\	mo	8B\	mo	.	.	.	.	.
.	.	4.e\	che	4.c\	che	.	.	4.g/	te-	.
.	.	8f\	pa-	8d\	pa-	.	.	8f/	mo	.
=44	=44	=44	=44	=44	=44	=44	=44	=44	=44	.
2r	.	2e\	ven-	2c\	ven-	2r	.	4.g/	che	.
.	.	.	.	.	.	.	.	8a/	pa-	.
4r	.	4e\	ti	2c\	ti	4r	.	4g/	ven-	.
4C/	Ma	4c\	Ma	.	.	4e\	Ma	4g/	ti	.
=45	=45	=45	=45	=45	=45	=45	=45	=45	=45	.
4.C/	te-	4.c\	te-	4r	.	4.e\	te-	1r	.	.
.	.	.	.	4G/	Ma	.	.	.	.	.
8BB/	mo	8d\	mo	.	.	8d\	mo	.	.	.
4.C/	che	4.c\	che	4.G/	te-	4.e\	che	.	.	.
8D\	pa-	8A/	pa-	8F/	mo	8f\	pa-	.	.	.
=46	=46	=46	=46	=46	=46	=46	=46	=46	=46	.
2C/	ven-	4c\	ven-	4.G/	che	2e\	ven-	2r	.	.
.	.	4c\	ti	.	.	.	.	.	.	.
.	.	.	.	8A/	pa-	.	.	.	.	.
4C/	ti	2r	.	4G/	ven-	4e\	ti	4r	.	.
4G\	Ma	.	.	4G/	ti	4g\	Ma	4b\	Ma	.
=47	=47	=47	=47	=47	=47	=47	=47	=47	=47	.
4.G\	te-	4r	.	1r	.	4.g\	te-	4.b\	te-	.
.	.	4d\	Ma	.	.	.	.	.	.	.
8F#\	mo	.	.	.	.	8a\	mo	8a/	mo	.
4.G\	che	4.d\	te-	.	.	4.g\	che	4.b\	che	.
8A\	pa-	8c\	mo	.	.	8e\	pa-	8cc\	pa-	.
=48	=48	=48	=48	=48	=48	=48	=48	=48	=48	.
2G\	ven-	4.d\	che	2r	.	4g\	ven-	2b\	ven-	.
.	.	.	.	.	.	4g\	ti	.	.	.
.	.	8e\	pa-	.	.	.	.	.	.	.
2G\	ti	4d\	ven-	4r	.	2r	.	2b\	ti	>
.	.	4d\	ti	4G/	Pu-	.	.	.	.	<ANTIF_3v+imit_2v
=49	=49	=49	=49	=49	=49	=49	=49	=49	=49	.
1r	.	4r	.	2c\	nir	4r	.	1r	.	.
.	.	4e\	Pu-	.	.	4g\	Pu-	.	.	.
.	.	4e\	nir	2c\	chi	4g\	nir	.	.	.
.	.	8d\L	.	.	.	8f\L	.	.	.	.
.	.	8c\J	.	.	.	8e\J	.	.	.	.
=50	=50	=50	=50	=50	=50	=50	=50	=50	=50	.
1r	.	4d\	.	2B-\	l'ha	4f\	.	1r	.	.
.	.	4d\	chi	.	.	4d\	chi	.	.	.
.	.	4c\	l'ha	2A/	ru-	4e\	l'ha	.	.	.
.	.	8B/L	.	.	.	8d\L	.	.	.	.
.	.	8A/J	.	.	.	8c\J	.	.	.	.
=51	=51	=51	=51	=51	=51	=51	=51	=51	=51	.
1r	.	4B\	.	1G/	ba-	4d\	.	1r	.	.
.	.	4c\	ru-	.	.	4e\	ru-	.	.	.
.	.	2B\	ba-	.	.	2d\	ba-	.	.	.
=52	=52	=52	=52	=52	=52	=52	=52	=52	=52	.
4r	.	2c\	to	1c\	to	2.e\	to	4r	.	.
4A\	Pu-	.	.	.	.	.	.	4cc\	Pu-	.
4A\	nir	2c\	Pu-	.	.	.	.	4cc\	nir	.
8G\L	.	.	.	.	.	4f\	Pu-	8b/L	.	.
8F\J	.	.	.	.	.	.	.	8a/J	.	.
=53	=53	=53	=53	=53	=53	=53	=53	=53	=53	.
4G\	.	2B\	nir	1r	.	4d\	nir	4b\	.	.
4E\	chi	.	.	.	.	4e\	chi	4g/	chi	.
4F\	l'ha	2A/	chi	.	.	4.c\	l'ha	4a/	l'ha	.
8E\L	.	.	.	.	.	.	.	8g/L	.	.
8D\J	.	.	.	.	.	8d\	ru-	8f/J	.	.
=54	=54	=54	=54	=54	=54	=54	=54	=54	=54	.
4E\	.	4G/	l'ha	1r	.	1c\	ba-	4g/	.	.
4F\	ru-	4A/	ru-	.	.	.	.	4f/	ru-	.
2C/	ba-	2G/	ba-	.	.	.	.	2e/	ba-	.
=55	=55	=55	=55	=55	=55	=55	=55	=55	=55	.
2F\	to	4A/	to	4r	.	2c\	to	4f/	to	.
.	.	4A/	Pu-	4f\	Pu-	.	.	4a/	Pu-	.
2r	.	2d\	nir	4f\	nir	2r	.	4a/	nir	.
.	.	.	.	8e\L	.	.	.	8g/L	.	.
.	.	.	.	8d\J	.	.	.	8f/J	.	.
=56	=56	=56	=56	=56	=56	=56	=56	=56	=56	.
1r	.	2c\	chi	4e\	.	1r	.	4g/	.	.
.	.	.	.	4c\	chi	.	.	4e/	chi	.
.	.	4B-\	l'ha	4.d\	l'ha	.	.	4f/	l'ha	.
.	.	4B-\	ru-	.	.	.	.	8e/L	.	.
.	.	.	.	8d\	ru-	.	.	8d/J	.	.
=57	=57	=57	=57	=57	=57	=57	=57	=57	=57	.
1r	.	1A/	ba-	4c#\	ba-	1r	.	4e/	.	.
.	.	.	.	2d\	.	.	.	4f/	ru-	.
.	.	.	.	.	.	.	.	2e/	ba-	.
.	.	.	.	4c#\	.	.	.	.	.	.
=58	=58	=58	=58	=58	=58	=58	=58	=58	=58	.
4r	.	4D/	to	4d\	to	1r	.	2f#/	to	>
4D\	Sol	4A/	Sol	4d\	Sol	.	.	.	.	<ANTIF_5v
4E\	per-	4G/	per-	4c\	per-	.	.	2r	.	.
4G\	chan-	4B\	chean-	4B\	chean-	.	.	.	.	.
=59	=59	=59	=59	=59	=59	=59	=59	=59	=59	.
4.F#\	cor	4.d\	cor	4.A/	cor	2r	.	2r	.	.
8F#\	tu	8d\	tu	8A/	tu	.	.	.	.	.
2G\	sei	2d\	sei	2B\	sei	4r	.	4r	.	.
.	.	.	.	.	.	4d\	Sol	4dd\	Sol	.
=60	=60	=60	=60	=60	=60	=60	=60	=60	=60	.
1r	.	2r	.	4r	.	4e\	per-	4cc\	per-	.
.	.	.	.	4G/	tu	4g\	chean-	4b\	chean-	.
.	.	4r	.	4d\	sei	4.f#\	cor	2a/	cor	.
.	.	4d\	Sol	4D/	Sol	.	.	.	.	.
.	.	.	.	.	.	8f#\	tu	.	.	.
=61	=61	=61	=61	=61	=61	=61	=61	=61	=61	.
2r	.	4c\	per-	4E/	per-	2g\	sei	4r	.	.
.	.	4B\	chean-	4G/	chean-	.	.	4d/	tu	.
2D\	an-	4A/	cor	4.F#/	cor	4r	.	2a/	sei	.
.	.	4A/	sol	.	.	4d\	Sol	.	.	.
.	.	.	.	8F#/	tu	.	.	.	.	.
=62	=62	=62	=62	=62	=62	=62	=62	=62	=62	.
4C/	cor	4c\	per-	2G/	sei,	4e\	per-	2r	.	.
4E\	tu	4B\	chean-	.	.	4g\	chean-	.	.	.
2D\	sei	[2d\	cor	2A/	sol	4.f#\	cor	4r	.	.
.	.	.	.	.	.	.	.	4a/	Sol	.
.	.	.	.	.	.	8f#\	tu	.	.	.
=63	=63	=63	=63	=63	=63	=63	=63	=63	=63	.
2r	.	4d\]	.	4G/	per-	2g\	sei	4b\	per-	.
.	.	4d\	tu	4B\	chean-	.	.	4dd\	chean-	.
4r	.	4.e\	sei	2A/	cor	4r	.	4.cc#\	cor	.
4AA/	tu	.	.	.	.	4a\	tu	.	.	.
.	.	8e\	di	.	.	.	.	8cc#\	tu	.
=64	=64	=64	=64	=64	=64	=64	=64	=64	=64	.
4.D\	sei	2.d\	fur-	2A/	tu	2f#\	sei	4dd\	sei	.
.	.	.	.	.	.	.	.	4a/	tu	.
8C/	di	.	.	.	.	.	.	.	.	.
4BB/	fur-	.	.	[2B\	sei	2f#\	di	[2dd\	sei	.
4BB/	to	4d\	to	.	.	.	.	.	.	.
=65	=65	=65	=65	=65	=65	=65	=65	=65	=65	.
[1E\	na-	[1e\	na-	2B\]	.	2g#\	fur-	2dd\]	.	.
.	.	.	.	2A/	di	2a\	to	2cc\	di	.
=66	=66	=66	=66	=66	=66	=66	=66	=66	=66	.
1E\]	.	1e\]	.	4B\	fur-	4g#\	na-	4b\	fur-	.
.	.	.	.	4c\	to	2a\	.	4a/	to	.
.	.	.	.	2B\	na-	.	.	2b\	na-	.
.	.	.	.	.	.	4g#\	.	.	.	.
=67	=67	=67	=67	=67	=67	=67	=67	=67	=67	.
4AA/	to	4e\	to	2.A/	to	4a\	to	[1a/	to.	>
4D\	di	4d\	di	.	.	4f\	di	.	.	<HOM_3v+CON_1v
4C#/	fur-	4e\	fur-	.	.	4e\	fur-	.	.	.
4D\	to	4A/	to	4F/	di	4d\	to	.	.	.
=68	=68	=68	=68	=68	=68	=68	=68	=68	=68	.
1AA/	na-	1A/	na-	4E/	fur-	4c#\	na-	1a/_	.	.
.	.	.	.	4F/	to	2d\	.	.	.	.
.	.	.	.	2E/	na-	.	.	.	.	.
.	.	.	.	.	.	4c#\	.	.	.	.
=69	=69	=69	=69	=69	=69	=69	=69	=69	=69	.
1D\	to.	1A/	to.	1F#/	to.	1d\	to.	1a/]	.	>
==	==	==	==	==	==	==	==	==	==	==
*-	*-	*-	*-	*-	*-	*-	*-	*-	*-	*-